X: 39886
T: This Will Be Your Day
R: waltz
M: 3/4
K: Gmajor
|:d3 ^c fe|d4 B2|G3 F BA|D6|
E3 F G_A|A4 B2|c3 d fe|d4 ^ce|
d3 ^c fe|d4 B2|G3 F BA|D6|
E3 F G_A|A3 B cd|f3 e EF|G6:|
A3 _A =A_B|B4 D2|B3 _B =Bc|d6|
A3 _A =A_B|B4 D2|B3 _B =Bc|d4 _e2|
e3 c Gc|e4 _e2|d3 B GB|d4 ^c2|
c3 A FA|c6|B3 _B =Bc|d4 _e2|
e3 c Gc|e4 _e2|d3 B GE|D6|
E3 F G_A|AB cd fe|d3 c EF|G6||

